X: 387
P: Longways for as many as will
M: C|
L: 1/16
K: G
(Bc)(BA) (GA)(GF) (EF)(ED) ^C2E2 | A2(GF) F2(ED) D6 :|
c2Bc A2dc B2AB G2cB | A2GA F2BA G2FG E2AB |\
(cB)(AG) (AG)(FE) ^D4 B,4 | (EF)(EF) G2E2 (FG)(FG) A2F2 |\
(GA)(GA) B2G2  (AB)(AB) c2A2 | B2(cB) (AG)(FE) E6 B2 |
(ed)c2 (dc)(Bd) (cB)A2 (BA)(GB) | A2F2 G2A2 F4 (DE)(FD) |\
d2(ed) (cB)(AG) G6 F2 | G4 G8 z2 |]

